X:1
T:Hoe schoon lichtet de morghenster
T:Hoe schoon lichtet de morghenster
T:Dirk Janszoon Sweling
C:Dirk Janszoon Sweling
%%score [ 1 2 3 4 ]
L:1/8
Q:1/4=120
M:2/2
K:F
V:1 treble nm="Soprano" snm="S"
V:2 treble nm="Alto" snm="A"
V:3 treble-8 nm="Tenor" snm="T"
V:4 bass nm="Bass" snm="B"
V:1
"^Hoe  schoon   lich-    tet        die     morghenster,        vol g'naed'en waer- heyt  van den" F4 c4 | %1
 A4 F4 | c4 d2 d2 | c4 z2 c2 | d2 e2 f4 | e4 d2 d2 | %6
"^Heer,         die   soe-      te   wor-       tel  Jes-        se,                           ghy zoon      Da-     vits" c4 z2 c2 | %7
 d4 c2 B2- | B2 A2 G4 | F8 | z2 F2 c4 | A4 F4 | %12
"^uit       Ja-cobs  stam,         myn koninck en        myn      bruy-de-gom,          hebt  my     myn hert" c4 d2 d2 | %13
 c4 z2 c2 | d2 e2 f4 | e4 d2 d2 | c4 z2 c2 | d4 c2 B2- | %18
"^be-  se-        ten,                      lief'     lijk,     vriend-   lijk,  schoon en heerlijk,groot en heerlijk," B2 A2 G4 | %19
 F4 z4 | c4 A4 | c4 A4 | A2 A2 G2 G2 | A2 A2 G2 G2 | A2 A2 G4 | F8 | f4 c4 | d4 c2 B2- | B2 A2 G4 | %29
 F8- | F8 |] %31
V:2
 z4 C4 | F4 D4 | C4 z2 G2 | A2 A2 F4 | z2 G2 A2 B2 | c4 B4 | %6
"^an den Heer,die soe-te   wor-tel" A2 A2 G2 A2 | F2 G2 A2 G2- | %8
"^Jes-              se,            ghy  zoon    Da-        vits uit Ja-cobs" G2 F4 E2 | F4 z2 C2 | %10
 F4 E4 | C2 C2 D2 D2 | C2 E2 F2 G2 | E4 z2 E2 | F2 G2 A2 F2 | G4 D4 | F2 E2 E2 F2 | z2 D2 F2 D2 | %18
"^se-                     ten,                    lief'      lijk,       vriend-  lijk,   schoon en herlijk,groot en heerlijk," E2 F4 E2 | %19
 F8 | F4 F4 | C4 C4 | F2 F2 E2 E2 | F2 F2 E2 E2 | %24
"^rijk van ge-  ven,           hooch   en         seer      prach-tich     ver- he-      ven.""^rijk van ge- ven hooch en seer___  prach-tich_____    ver-       he-           ven, ver-he-    ven." F2 F2 E4 | %25
 C4 F2 C2 | D3 E F2 E2 | DEFG A2 G2- | GF F4 E2 | F2 C2 D4 | C8 |] %31
V:3
"^Hoe   schoon  lich-    tet            de morghenster,         vol g'naed'en waerheyt" z8 | %1
"^Hoe schoon    lich-   tet de morghenster,de morghenster,      vol g'naed'en" F4 B4 | A4 F2 B2 | %3
 A2 F2 A2 A2 | B2 G2 F4 | z2 c2 d2 e2 | f4 e4 | d2 d2 A2 B2 | B2 c2 dd c2 | %9
"^ghy  zoon    Da-       vits uit Ja-cobs" A4 z2 A2 | d4 G4 | A2 A2 B2 B2 | %12
"^stam___  ,myn ko-                    ninck    en  myn  bruy-        de- gom,hebt ghy myn hert____ be-""^stam, uyt Ja-cobs stam,         myn   ko-          ninck  en      myn        bruy-    de-gom,     myn hert be-" AB c4 =B2 | %13
 c2 d2 e4 | d4 c2 c2 | =B2 c4 B2 | c2 c2 B2 A2 | AGFG A2 F2 | %18
"^se-                    ten,      lief'        lijk,   vriend-     lijk,               schoon en heerlijk,groot en heerlijk," c6 G2 | %19
 A4 c4 | A4 c4 | A4 z4 | c2 A2 c2 c2 | c2 A2 c2 c2 | %24
"^rijk van ge-  ven,         hooch en seer_____  prach-tich______ ver-he-      ven,ver-he-    ven." c2 A2 c4 | %25
 A8 | B2 F2 A3 G | F2 G2 fedc | d2 c2 c4 | A2 A2 B4 | A8 |] %31
V:4
 z8 | z8 |"^Hoe schoon   lich-    tet  de morghenster,                    vol" F,4 B,,4 | %3
 F,4 F,2 F,2 | B,,2 C,2 F,4 | z4 z2 G,2 | %6
"^waer-    heyt       van den Heer,die soete wortej Jes-  se,""^g'naed'en waerheyt van den Heer,die soete wortel Jesse, ghy zoon    Da-      vits uit   Ja-cobs stam" A,2 B,2 C2 A,2 | %7
 B,2 B,2 F,2 G,2 | G,,2 A,,2 B,,B,, C,2 | F,,2 F,,2 F,4 | D,4 C,2 C,2 | F,2 F,2 B,,4 | z4 z2 G,2 | %13
 A,2 B,2 C4 | B,4 A,2 A,2 | G,4 z2 G,2 | A,4 G,2 (F,2 | F,2) B,,2 A,,2 B,,2 | %18
"^se-                    ten,                    lief'      lijk,       vriend-  lijk,  schoon en heerlijk,groot en heerlijk," C,8 | %19
 F,,8 | F,4 F,4 | F,4 F,4 | F,2 F,2 C,2 C,2 | F,2 F,2 C,2 C,2 | %24
"^Note: original keys: Ut 1st, Ut 3rd, Ut 4rth, Fa 4rth" F,2 F,2 C,4 | F,8 | D,4 A,,4 | %27
 B,,4 A,,2 B,,2- | B,,2 F,,2 C,4 | F,,2 F,2 B,,4 | F,8 |] %31

